X:1084
T:The Token
M:3/4
L:1/8
Q:1/4=104
Z:Jack Campin * www.campin.me.uk * 2009
K:D
Adf   |{c} B2 g2    f/e/d/c/|{e}d2     z ad'c'|  babgab|d2{ed}cAcf|a3
fba   |{a}^g2 ga/b/ ed      |   ca {c'}b2 ^g2 |{b}a2 z
afd'  |    b3  gfg          |{b}a3       fef  |{a}g3 ede|{g}f2z
Adf   |    ec A2    g2      |{g}f3       Adf  |   ec A2    g2      |{g}f3
d'c'd'|{c'}b3  gab|d2{ed}caac'|d'2{c'b}c'abg|{b}a2b2ge|afgedc|{e}d2|]

